!!!COM: muz.: TKk
!!!OTL: Quinto canto - il narratore
**kern	**kern	**text
*part2	*part1	*part1
*staff2	*staff1	*staff1
*I"Tenore Basso	*I"Soprano Alto	*
*I'T B	*I'S A	*
*clefF4	*clefG2	*
*k[b-]	*k[b-]	*
*M4/4	*M4/4	*
=1	=1	=1
*^	*^	*
*	*^	*	*	*
[0c	[0F	[0FF	[0cc	0f	NARRATOR: Jak piękne są twe stopy w sandałach, księżniczko!
=	=	=	=	=	=
0c_	0F_	0FF_	0cc_	0g	Linia twych bioder jak kolia, dzieło rąk mistrza.
=	=	=	=	=	=
0c_	0F_	0FF_	0cc_	0a	Głowa twa wznosi się nad tobą jak Karmel,
=	=	=	=	=	=
0c_	0F_	0FF_	0cc_	0b-	włosy twe jak królewska purpura, splecione w warkocze.
=	=	=	=	=	=
0c_	0F_	0FF_	0cc_	0a	Powróć, wróć, przyjaciółko ma!
=	=	=	=	=	=
0c_	0F_	0FF_	0cc_	0g	niech się nacieszymy twym widokiem!
=	=	=	=	=	=
0c]	0F]	0FF]	0cc]	0f	Pieśń piąta.
*v	*v	*v	*	*	*
*	*v	*v	*
==	==	==
*-	*-	*-
!!!system-decoration: [(s1,s2)]
!!!YEM: Copyright by Tomasz Kozubek. All rights reserved
